mimetypes/64/package-generic.svg

<?xml version="1.0" encoding="UTF-8" standalone="no"?>
<!-- Created with Inkscape (http://www.inkscape.org/) -->

<svg
   xmlns:dc="http://purl.org/dc/elements/1.1/"
   xmlns:cc="http://creativecommons.org/ns#"
   xmlns:rdf="http://www.w3.org/1999/02/22-rdf-syntax-ns#"
   xmlns:svg="http://www.w3.org/2000/svg"
   xmlns="http://www.w3.org/2000/svg"
   xmlns:sodipodi="http://sodipodi.sourceforge.net/DTD/sodipodi-0.dtd"
   xmlns:inkscape="http://www.inkscape.org/namespaces/inkscape"
   version="1.1"
   width="64"
   height="64"
   id="svg13094"
   inkscape:version="0.92.2 5c3e80d, 2017-08-06"
   sodipodi:docname="application-x-archive.svg">
  <sodipodi:namedview
     pagecolor="#ffffff"
     bordercolor="#666666"
     borderopacity="1"
     objecttolerance="10"
     gridtolerance="10"
     guidetolerance="10"
     inkscape:pageopacity="0"
     inkscape:pageshadow="2"
     inkscape:window-width="1920"
     inkscape:window-height="1023"
     id="namedview44"
     showgrid="false"
     inkscape:zoom="10.429825"
     inkscape:cx="25.935598"
     inkscape:cy="31.987292"
     inkscape:window-x="-10"
     inkscape:window-y="35"
     inkscape:window-maximized="1"
     inkscape:current-layer="svg13094" />
  <defs
     id="defs11" />
  <metadata
     id="metadata13099">
    <rdf:RDF>
      <cc:Work
         rdf:about="">
        <dc:format>image/svg+xml</dc:format>
        <dc:type
           rdf:resource="http://purl.org/dc/dcmitype/StillImage" />
        <dc:title />
      </cc:Work>
    </rdf:RDF>
  </metadata>
  <path
     d="M 0,1 2,0 62,0 64,1 64,17 0,17 Z"
     id="path3029"
     style="fill:#d8bd6f;fill-opacity:1;fill-rule:nonzero"
     inkscape:connector-curvature="0"
     sodipodi:nodetypes="ccccccc" />
  <path
     d="m 0,16 64,0 0,46 -2,2 -60,0 -2,-2 z"
     id="path3809"
     style="color:#000000;display:inline;overflow:visible;visibility:visible;fill:#a07c46;fill-opacity:1;fill-rule:nonzero;stroke-width:1;stroke-linecap:butt;stroke-linejoin:miter;stroke-miterlimit:4;stroke-dasharray:none;stroke-dashoffset:0;stroke-opacity:1;marker:none;enable-background:accumulate"
     inkscape:connector-curvature="0"
     sodipodi:nodetypes="ccccccc" />
  <path
     d="m 0,16 64,0 0,46 -2,2 -60,0 -2,-2 z"
     id="path3831"
     style="fill:#a6854c;fill-opacity:1;fill-rule:nonzero"
     inkscape:connector-curvature="0"
     sodipodi:nodetypes="ccccccc" />
  <path
     d="m 64,18 -2,-2 2,-1 z"
     id="path3028"
     style="fill:#bfa15e;fill-opacity:1"
     inkscape:connector-curvature="0"
     sodipodi:nodetypes="cccc" />
  <path
     d="M 0,18 2,16 0,15 Z"
     id="path3028-3"
     style="fill:#ebcf7e;fill-opacity:1"
     inkscape:connector-curvature="0"
     sodipodi:nodetypes="cccc" />
  <path
     inkscape:connector-curvature="0"
     d="M 38.999981,56.20001 V 53.4 h 2.799985 2.800022 V 56.20001 59 h -2.800022 -2.799985 z m 4.8,0 V 54.2 H 41.799966 39.799987 V 56.20001 58.2 h 1.999979 2.000015 z m -3.200005,0 V 55 h 1.19999 1.20001 v 1.20001 1.2 h -1.20001 -1.19999 z m 4.800019,1.2 V 55.8 h 0.399986 0.400002 V 55.4 55 h 0.400005 0.400002 v -0.79999 -0.8 H 46.199983 45.399995 V 52.2 51.00001 h 0.399986 0.400002 V 50.6 50.20001 H 45.399995 44.599988 V 50.6 51.00001 H 44.199986 43.799981 V 51.4 51.80001 h 0.400005 0.400002 V 52.2 52.60001 h -1.19999 -1.200012 V 52.2 51.80001 h -0.40002 -0.399984 V 52.2 52.60001 h -0.400004 -0.400002 v -0.8 -0.8 H 40.199972 39.799987 V 51.4 51.80001 H 39.399984 38.999981 V 51.4 51.00001 h 0.400003 0.400003 V 49.8 48.60001 h -0.400003 -0.400003 v -0.8 -0.8 h 0.400003 0.400003 V 46.6 46.20001 H 39.399984 38.999981 V 45.8 45.4 h 1.599995 1.60001 v 0.4 0.40001 h 0.79999 0.800005 V 45.8 45.4 h 0.400005 0.400002 v 0.4 0.40001 H 44.199986 43.799981 V 46.6 47.00001 h 0.400005 0.400002 V 47.4 47.80001 H 44.199986 43.799981 V 48.2 48.60001 h 0.400005 0.400002 V 49 49.40001 h 0.400005 0.400002 V 49 48.60001 h 0.399986 0.400002 V 48.2 47.80001 H 45.799981 45.399995 V 46.6 45.4 h 0.399986 0.400002 v 0.80001 0.8 h 0.400005 0.400002 V 45 43 h 0.400003 0.399985 v 1.2 1.2 h 0.800007 0.800007 v 0.4 0.40001 H 48.999988 48.599985 V 46.6 47.00001 h 0.800007 0.800005 V 44.2 41.4 h -0.400002 -0.400003 v 0.8 0.8 h -0.400004 -0.400003 v -0.8 -0.8 h 0.400003 0.400004 V 40.99999 40.6 h -0.800007 -0.800007 v 0.8 0.8 H 46.99999 46.199983 V 42.6 43 H 45.799981 45.399995 V 41.79999 40.6 h 0.399986 0.400002 V 40.19999 39.8 H 45.799981 45.399995 V 39.39999 39 h 0.399986 0.400002 V 39.39999 39.8 h 1.20001 1.199992 V 39.39999 39 h 0.400003 0.400004 v 0.8 0.8 h 0.400003 0.400002 V 40.19999 39.8 h 0.399986 0.400002 V 40.19999 40.6 H 50.599983 50.199997 V 40.99999 41.4 h 0.399986 0.400002 V 41.79999 42.2 h 0.400004 0.400003 V 40.99999 39.8 h 0.399985 0.400003 v 2.4 2.4 h -0.400003 -0.399985 v 0.4 0.4 h 0.799988 0.800007 v 0.4 0.40001 H 52.999984 52.59998 V 46.6 47.00001 h 0.800007 0.799988 V 46.6 46.20001 h 0.400004 0.400022 V 45.8 45.4 h 1.200008 1.199993 v 1.2 1.20001 h 0.799989 0.800005 V 49 50.20001 H 58.599993 58.199991 V 50.6 51.00001 h 0.400002 0.400003 v 0.8 0.8 H 58.199991 57.400002 V 53 53.40001 h 0.799989 0.800005 V 53.8 54.20001 h -1.199992 -1.200008 v -0.8 -0.8 H 56.200009 55.79997 v 1.6 1.6 h 0.400039 0.399987 v 0.4 0.4 H 56.200009 55.79997 v 0.4 0.4 h 0.800026 0.800006 v -1.2 V 55 h 0.799989 0.79998 v 1.60001 h -0.800005 v 0.8 H 57.399907 V 58.2 h 1.599989 V 59 H 55.799875 V 57.40001 H 54.999906 V 59 H 54.19988 V 58.2 H 52.599885 V 55.80001 H 51.799897 V 55 H 50.99989 v 0.80001 h -0.799988 v 0.8 h 1.599995 v 0.8 H 50.999902 V 58.2 H 50.199914 V 59 h -1.600012 v -0.8 h 0.800007 V 55.80001 H 48.599905 V 55 h 0.800007 v 0.80001 h 0.800005 v -1.6 h -0.800005 v -0.8 h -1.60002 V 55 h -0.799988 v 1.60001 h 1.599995 v 0.8 H 47.799893 V 58.2 H 46.999905 V 59 H 45.39991 v -1.59999 z m 9.6,-1.2 V 55.8 h -0.800026 v 0.80001 h 0.800026 z m 0,-2.40001 V 52.6 H 52.599974 V 55 h 2.400019 v -1.2 z m -1.600014,0 v -0.4 h 0.400002 0.399986 v 0.4 0.4 H 53.799983 53.399981 Z M 51.799986,53 V 51.80001 H 50.999979 50.199991 V 51.4 51.00001 h 0.799988 0.800007 V 50.6 50.20001 h 0.399985 0.400003 V 49.39999 48.60001 H 52.199971 51.799986 V 48.2 47.80001 h 0.399985 0.400003 V 47.4 47.00001 h -0.400003 -0.399985 v -0.8 V 45.4 h -0.400003 -0.400004 v 1.2 1.20001 H 50.599977 50.199991 V 48.2 48.60001 h 0.799988 0.800007 v 0.79998 0.80002 H 50.999979 50.199991 V 49.8 49.39999 H 49.799989 49.399986 V 49 48.60001 H 48.999982 48.599979 V 48.2 47.80001 h -0.400002 -0.400005 v 0.8 0.79998 h -0.399985 -0.400003 v 0.8 0.80002 h 0.799988 0.800007 V 51.4 51.79999 H 48.199977 47.799972 V 52.2 52.6 H 47.399987 46.999984 V 52.2 51.79999 H 46.599982 46.199977 V 52.2 52.6 h 0.400005 0.400002 v 0.4 0.4 h 0.400003 0.399985 V 53 52.6 h 0.800007 0.800007 v 0.4 0.4 h 0.800005 0.799988 v 0.4 0.4 h 0.400004 0.400003 z m -2.4,-0.8 v -0.39999 h 0.400003 0.400002 V 52.2 52.60001 h -0.400002 -0.400003 z m -0.800007,-1.99999 v -0.8 h 0.400003 0.400004 V 49.8 50.20001 h 0.400003 0.400002 V 50.6 51.00001 H 49.399986 48.599979 Z M 54.199969,51.4 v -0.39999 h 0.400004 0.400022 V 51.4 51.80001 h 1.200008 1.199993 v -0.8 -0.8 h -2.000018 -1.999997 v 0.8 0.8 h 0.400002 0.399986 z m -12.79999,-0.8 v -0.39999 h 1.599994 1.600012 V 49.8 49.40001 H 44.199983 43.799978 V 49 48.60001 H 43.399995 42.999973 V 48.2 47.80001 h 0.400022 0.399983 V 47.4 47.00001 h -0.800005 -0.79999 V 46.6 46.20001 h -0.40002 -0.399984 V 46.6 47.00001 H 40.599973 39.799984 V 47.4 47.80001 h 0.799989 0.800006 v 0.8 0.79998 h -0.400004 -0.400002 v 0.80002 0.8 h 0.400002 0.400004 z m 0,-3.2 v -0.39999 h 0.399984 0.40002 V 47.4 47.80001 h -0.40002 -0.399984 z M 58.199989,49 V 48.60001 H 57.800002 57.4 V 49 49.40001 h 0.400002 0.399987 z M 54.199973,48.2 V 47.80001 H 53.799987 53.399985 V 48.2 48.60001 h 0.400002 0.399986 z m 1.599995,-0.39999 v -0.8 h 0.400039 0.399987 V 46.6 46.20001 H 55.799968 54.999999 V 47.4 48.60001 h 0.399983 0.399986 z m -4,-4.00001 V 43 h -0.80001 v 1.6 h 0.800007 v -0.8 z m 6.399999,2 v -0.4 h 0.400002 0.400003 v 0.4 0.40001 H 58.599969 58.199967 Z M 38.999957,41.79999 V 39 h 2.799985 2.800022 V 41.79999 44.6 h -2.800022 -2.799985 z m 4.8,0 V 39.8 H 41.799942 39.799963 V 41.79999 43.8 h 1.999979 2.000015 z m -3.200005,0 V 40.6 h 1.19999 1.20001 V 41.79999 43 h -1.20001 -1.19999 z M 45.399972,44.2 v -0.4 h 0.799988 v 0.8 h -0.799988 z m 3.19999,0 v -0.4 h 0.400003 0.400004 v 0.4 0.4 h -0.400004 -0.400003 z m 4.800002,-2.40001 V 39 h 2.800022 2.79999 v 5.6 h -5.600009 v -2.80001 z m 4.800004,0 V 39.8 H 56.199986 54.199952 V 41.79999 43.8 h 2.000034 1.999982 z m -3.19999,0 V 40.6 h 1.200008 1.199993 V 41.79999 43 h -1.199993 -1.200008 z"
     id="path3108-3"
     style="opacity:1;vector-effect:none;fill:#240d00;fill-opacity:0.14432989;stroke-width:1;stroke-linecap:butt;stroke-linejoin:miter;stroke-miterlimit:4;stroke-dasharray:none;stroke-dashoffset:0;stroke-opacity:1;marker:none" />
  <path
     inkscape:connector-curvature="0"
     style="color:#000000;display:inline;overflow:visible;visibility:visible;opacity:1;vector-effect:none;fill:#240d00;fill-opacity:0.14432989;fill-rule:nonzero;stroke-width:1;stroke-linecap:butt;stroke-linejoin:miter;stroke-miterlimit:4;stroke-dasharray:none;stroke-dashoffset:0;stroke-opacity:1;marker:none;enable-background:accumulate"
     d="m 5.2070316,48 c -0.043718,2.6e-5 -0.083556,0.03659 -0.087891,0.08008 0,0 -0.1531096,1.51821 -0.1132812,2.138672 0.019953,0.313286 0.1483243,1.082088 0.3925781,1.904297 0.2442925,0.822209 0.6010545,1.692859 1.1035156,2.195312 -3.87e-5,2.4e-5 0.00391,0.002 0.00391,0.002 0.2260039,0.207086 0.3273469,0.368048 0.3828125,0.646485 0.055427,0.278449 0.056641,0.677244 0.056641,1.322265 -3.87e-5,0.741507 0.00793,0.620752 -0.019531,1.144532 -0.013741,0.261844 -0.03774,0.477712 -0.072266,0.626953 -0.017224,0.07462 -0.037327,0.133159 -0.056641,0.167969 -0.019721,0.03478 -0.033916,0.04203 -0.037109,0.04297 -0.2676322,0.07173 -0.578187,0.197907 -0.8457031,0.330078 -0.2675161,0.132141 -0.4843151,0.256528 -0.5859375,0.375 -0.020804,0.02672 -0.027993,0.06482 -0.013672,0.0957 0.013934,0.03073 0.048222,0.05072 0.082031,0.05078 h 1.9335937 1.9335938 c 0.034119,8.4e-5 0.067768,-0.02009 0.082031,-0.05078 0.013934,-0.03069 0.00839,-0.06998 -0.013672,-0.0957 -0.1015643,-0.118493 -0.3164488,-0.242833 -0.5839843,-0.375 -0.267516,-0.132134 -0.5799854,-0.25835 -0.8476563,-0.330078 -0.00387,-0.0015 -0.017814,-0.0081 -0.037109,-0.04297 -0.01974,-0.0349 -0.039204,-0.09336 -0.056641,-0.167969 -0.034506,-0.149245 -0.056747,-0.365061 -0.070312,-0.626953 -0.027288,-0.523763 -0.019531,-0.402995 -0.019531,-1.144532 0,-0.644798 1.36e-5,-1.043917 0.056641,-1.322265 0.055388,-0.278344 0.1549909,-0.439236 0.3808594,-0.646485 0,-5.79e-4 3.62e-5,-0.0011 0.00391,-0.002 C 8.6711732,53.805368 9.0278518,52.934956 9.2695316,52.115234 9.5111535,51.295508 9.6342089,50.53112 9.6542973,50.21875 9.6940293,49.598131 9.5429692,48.089844 9.5429692,48.089844 9.5430466,48.043234 9.4998044,48 9.4531254,48 H 5.2089848 Z m 8.8496094,0 -2.748047,3.822266 h 1.832031 v 6.835937 h -2.517578 v 0.464844 h 2.017578 2.833985 2.015625 v -0.464844 h -2.517579 v -6.835937 h 1.833986 z m 10.916016,0 c -0.09365,7.74e-4 -0.175398,0.117798 -0.195312,0.285156 -3.009367,0.07063 -5.674772,1.938572 -6.324219,4.623047 0.201774,-0.426971 0.697476,-0.710246 1.246094,-0.712891 0.08974,-3.87e-4 0.181975,0.0064 0.273437,0.02148 0.498068,0.08244 0.893668,0.389027 1.033203,0.789062 l 0.04883,0.002 c 0.228964,-0.505702 0.868298,-0.815803 1.52539,-0.707031 0.472328,0.07818 0.854611,0.358633 1.011719,0.728516 h 0.0098 c 0.164191,-0.463763 0.665208,-0.782318 1.230469,-0.804688 -0.0021,1.072344 -0.0038,2.572492 -0.002,3.640625 l -0.179687,0.02148 c 0.037,0.314675 -0.09538,1.081086 0.0332,1.791015 0.06431,0.354965 0.206511,0.715223 0.501953,0.988282 0.295481,0.273061 0.727065,0.437794 1.296875,0.457031 h 0.01953 l 0.01953,-0.002 c 0.769997,-0.07269 1.233237,-0.432507 1.427735,-0.871094 0.194497,-0.438585 0.160156,-0.899363 0.160156,-1.232422 h -0.59375 c 0,0.356393 0.0057,0.732316 -0.109375,0.992188 -0.114028,0.257133 -0.308287,0.455699 -0.923828,0.517578 -0.457697,-0.01866 -0.721014,-0.140256 -0.892578,-0.298828 -0.174119,-0.16091 -0.270383,-0.382642 -0.320313,-0.658204 -0.09978,-0.551118 0.03362,-1.235158 -0.02734,-1.753906 l -0.136719,0.01563 c -0.0025,-1.061998 -1.47e-4,-2.531566 0.002,-3.59375 0.01742,0.0023 0.03524,0.003 0.05273,0.0059 0.505732,0.08371 0.905489,0.399536 1.039063,0.808593 h 0.04492 c 0.197459,-0.54938 0.865992,-0.893293 1.554687,-0.779296 0.50399,0.08342 0.904076,0.39572 1.039063,0.802734 h 0.01758 c 0.199529,-0.546795 0.865897,-0.88909 1.552734,-0.775391 0.501764,0.08305 0.900361,0.394432 1.037109,0.798828 h 0.06641 c -0.479121,-2.368521 -2.56663,-4.236452 -5.25586,-4.705078 -0.363139,-0.06328 -0.723788,-0.09888 -1.082031,-0.109375 -0.01626,-0.140601 -0.07798,-0.251218 -0.158203,-0.279297 -0.01374,-0.0048 -0.02757,-0.006 -0.04102,-0.0059 z"
     id="path4101-7" />
</svg>

<?xml version="1.0" encoding="UTF-8"?>
<!-- Created with Inkscape (http://www.inkscape.org/) -->
<svg width="64" height="64" version="1.1" xmlns="http://www.w3.org/2000/svg" xmlns:cc="http://creativecommons.org/ns#" xmlns:dc="http://purl.org/dc/elements/1.1/" xmlns:rdf="http://www.w3.org/1999/02/22-rdf-syntax-ns#" xmlns:xlink="http://www.w3.org/1999/xlink">
	<defs>
		<radialGradient id="b" cx="23.137" cy="54.02" r="32" gradientTransform="matrix(1.3446 0 0 1.0085 -11.582 .8623)" gradientUnits="userSpaceOnUse">
			<stop stop-color="#87716a" stop-opacity=".76034" offset="0"/>
			<stop stop-color="#89746c" stop-opacity="0" offset="1"/>
		</radialGradient>
		<radialGradient id="a" cx="32.542" cy="-22.639" r="32" gradientTransform="matrix(0 .48729 -1.791 0 -8.0044 -15.629)" gradientUnits="userSpaceOnUse">
			<stop stop-color="#d4bf91" offset="0"/>
			<stop stop-color="#e6be7c" offset="1"/>
		</radialGradient>
	</defs>
	<metadata>
		<rdf:RDF>
			<cc:Work rdf:about="">
				<dc:format>image/svg+xml</dc:format>
				<dc:type rdf:resource="http://purl.org/dc/dcmitype/StillImage"/>
				<dc:title/>
			</cc:Work>
		</rdf:RDF>
	</metadata>
	<path d="m0 1 2-1h60l2 1v16h-64z" fill="url(#a)"/>
	<path d="m0 16h64v46l-2 2h-60l-2-2z" color="#000000" fill="#ae7f45"/>
	<path d="m0 16h64v46l-2 2h-60l-2-2z" fill="url(#b)"/>
	<path d="m64 18-2-2 2-1z" fill="#be9156"/>
	<path d="m0 18 2-2-2-1z" fill="#eecc80"/>
	<path d="m39 56.2v-2.8h2.8 2.8v2.8 2.8h-2.8-2.8zm4.8 0v-2h-2-2v2 2h2 2zm-3.2 0v-1.2h1.2 1.2v1.2 1.2h-1.2-1.2zm4.8 1.2v-1.6h0.39999 0.4v-0.4-0.4h0.4 0.4v-0.79999-0.8h-0.80001-0.79999v-1.2-1.2h0.39999 0.4v-0.40001-0.39999h-0.79999-0.80001v0.39999 0.40001h-0.4-0.4v0.39999 0.40001h0.4 0.4v0.39999 0.40001h-1.2-1.2v-0.40001-0.39999h-0.40002-0.39998v0.39999 0.40001h-0.4-0.4v-0.8-0.8h-0.4-0.39998v0.39999 0.40001h-0.4-0.4v-0.40001-0.39999h0.4 0.4v-1.2-1.2h-0.4-0.4v-0.8-0.8h0.4 0.4v-0.40001-0.39999h-0.4-0.4v-0.40001-0.4h1.6 1.6v0.4 0.40001h0.79999 0.8v-0.40001-0.4h0.4 0.4v0.4 0.40001h-0.4-0.4v0.39999 0.40001h0.4 0.4v0.39999 0.40001h-0.4-0.4v0.39999 0.40001h0.4 0.4v0.39999 0.40001h0.4 0.4v-0.40001-0.39999h0.39999 0.4v-0.40001-0.39999h-0.4-0.39999v-1.2-1.2h0.39999 0.4v0.80001 0.8h0.4 0.4v-2-2h0.4 0.39998v1.2 1.2h0.80001 0.80001v0.4 0.40001h-0.4-0.4v0.39999 0.40001h0.80001 0.8v-2.8-2.8h-0.4-0.4v0.8 0.8h-0.4-0.4v-0.8-0.8h0.4 0.4v-0.40001-0.39999h-0.80001-0.80001v0.8 0.8h-0.79999-0.80001v0.4 0.4h-0.4-0.39999v-1.2-1.2h0.39999 0.4v-0.40001-0.39999h-0.4-0.39999v-0.40001-0.39999h0.39999 0.4v0.39999 0.40001h1.2 1.2v-0.40001-0.39999h0.4 0.4v0.8 0.8h0.4 0.4v-0.40001-0.39999h0.39999 0.4v0.39999 0.40001h-0.4-0.39999v0.39999 0.40001h0.39999 0.4v0.39999 0.40001h0.4 0.4v-1.2-1.2h0.39998 0.4v2.4 2.4h-0.4-0.39998v0.4 0.4h0.79999 0.80001v0.4 0.40001h-0.4-0.4v0.39999 0.40001h0.80001 0.79999v-0.40001-0.39999h0.4 0.40002v-0.40001-0.4h1.2 1.2v1.2 1.2h0.79999 0.8v1.2 1.2h-0.4-0.4v0.39999 0.40001h0.4 0.4v0.8 0.8h-0.8-0.79999v0.39999 0.40001h0.79999 0.8v0.39999 0.40001h-1.2-1.2v-0.8-0.8h-0.39999-0.40004v1.6 1.6h0.40004 0.39999v0.4 0.4h-0.39999-0.40004v0.4 0.4h0.80003 0.80001v-1.2-1.2h0.79999 0.79998v1.6h-0.8v0.8h-0.80006v0.79999h1.6v0.8h-3.2v-1.6h-0.79997v1.6h-0.80003v-0.8h-1.6v-2.4h-0.79999v-0.80001h-0.80001v0.80001h-0.79999v0.8h1.6v0.8h-0.8v0.79999h-0.79999v0.8h-1.6v-0.8h0.80001v-2.4h-0.8v-0.80001h0.80001v0.80001h0.8v-1.6h-0.8v-0.8h-1.6v1.6h-0.79999v1.6h1.6v0.8h-0.80001v0.79999h-0.79999v0.8h-1.6v-1.6zm9.6-1.2v-0.40001h-0.80003v0.80001h0.80003zm0-2.4v-1.2h-2.4v2.4h2.4v-1.2zm-1.6 0v-0.4h0.4 0.39999v0.4 0.4h-0.39999-0.4zm-1.6-0.8v-1.2h-0.80001-0.79999v-0.40001-0.39999h0.79999 0.80001v-0.40001-0.39999h0.39998 0.4v-0.80002-0.79998h-0.4-0.39998v-0.40001-0.39999h0.39998 0.4v-0.40001-0.39999h-0.4-0.39998v-0.8-0.80001h-0.4-0.4v1.2 1.2h-0.4-0.39999v0.39999 0.40001h0.79999 0.80001v0.79998 0.80002h-0.80001-0.79999v-0.40001-0.40001h-0.4-0.4v-0.39999-0.39999h-0.4-0.4v-0.40001-0.39999h-0.4-0.4v0.8 0.79998h-0.39998-0.4v0.8 0.80002h0.79999 0.80001v0.39999 0.39999h-0.4-0.4v0.40001 0.4h-0.39998-0.4v-0.4-0.40001h-0.4-0.4v0.40001 0.4h0.4 0.4v0.4 0.4h0.4 0.39998v-0.4-0.4h0.80001 0.80001v0.4 0.4h0.8 0.79999v0.4 0.4h0.4 0.4zm-2.4-0.8v-0.39999h0.4 0.4v0.39999 0.40001h-0.4-0.4zm-0.80001-2v-0.8h0.4 0.4v0.39999 0.40001h0.4 0.4v0.39999 0.40001h-0.8-0.80001zm5.6 1.2v-0.39999h0.4 0.40002v0.39999 0.40001h1.2 1.2v-0.8-0.8h-2-2v0.8 0.8h0.4 0.39999zm-12.8-0.8v-0.39999h1.6 1.6v-0.40001-0.39999h-0.4-0.4v-0.40001-0.39999h-0.39998-0.40002v-0.40001-0.39999h0.40002 0.39998v-0.40001-0.39999h-0.8-0.79999v-0.40001-0.39999h-0.40002-0.39998v0.39999 0.40001h-0.80001-0.79999v0.39999 0.40001h0.79999 0.80001v0.8 0.79998h-0.4-0.4v0.80002 0.8h0.4 0.4zm0-3.2v-0.39999h0.39998 0.40002v0.39999 0.40001h-0.40002-0.39998zm16.8 1.6v-0.39999h-0.39999-0.4v0.39999 0.40001h0.4 0.39999zm-4-0.8v-0.39999h-0.39999-0.4v0.39999 0.40001h0.4 0.39999zm1.6-0.39999v-0.8h0.40004 0.39999v-0.40001-0.39999h-0.80003-0.79997v1.2 1.2h0.39998 0.39999zm-4-4v-0.8h-0.80001v1.6h0.80001v-0.8zm6.4 2v-0.4h0.4 0.4v0.4 0.40001h-0.4-0.4zm-19.2-4v-2.8h2.8 2.8v2.8 2.8h-2.8-2.8zm4.8 0v-2h-2-2v2 2h2 2zm-3.2 0v-1.2h1.2 1.2v1.2 1.2h-1.2-1.2zm4.8 2.4v-0.4h0.79999v0.8h-0.79999zm3.2 0v-0.4h0.4 0.4v0.4 0.4h-0.4-0.4zm4.8-2.4v-2.8h2.8 2.8v5.6h-5.6v-2.8zm4.8 0v-2h-2-2v2 2h2 2zm-3.2 0v-1.2h1.2 1.2v1.2 1.2h-1.2-1.2z" fill="#240d00" fill-opacity=".23879"/>
	<path d="m5.207 48c-0.043718 2.6e-5 -0.083556 0.03659-0.087891 0.08008 0 0-0.15311 1.5182-0.11328 2.1387 0.019953 0.31329 0.14832 1.0821 0.39258 1.9043 0.24429 0.82221 0.60105 1.6929 1.1035 2.1953-3.87e-5 2.4e-5 0.00391 2e-3 0.00391 2e-3 0.226 0.20709 0.32735 0.36805 0.38281 0.64648 0.055427 0.27845 0.056641 0.67724 0.056641 1.3223-3.87e-5 0.74151 0.00793 0.62075-0.019531 1.1445-0.013741 0.26184-0.03774 0.47771-0.072266 0.62695-0.017224 0.07462-0.037327 0.13316-0.056641 0.16797-0.019721 0.03478-0.033916 0.04203-0.037109 0.04297-0.26763 0.07173-0.57819 0.19791-0.8457 0.33008-0.26752 0.13214-0.48432 0.25653-0.58594 0.375-0.020804 0.02672-0.027993 0.06482-0.013672 0.0957 0.013934 0.03073 0.048222 0.05072 0.082031 0.05078h1.9336 1.9336c0.034119 8.4e-5 0.067768-0.02009 0.082031-0.05078 0.013934-0.03069 0.00839-0.06998-0.013672-0.0957-0.10156-0.11849-0.31645-0.24283-0.58398-0.375-0.26752-0.13213-0.57999-0.25835-0.84766-0.33008-0.00387-0.0015-0.017814-0.0081-0.037109-0.04297-0.01974-0.0349-0.039204-0.09336-0.056641-0.16797-0.034506-0.14924-0.056747-0.36506-0.070312-0.62695-0.027288-0.52376-0.019531-0.403-0.019531-1.1445 0-0.6448 1.36e-5 -1.0439 0.056641-1.3223 0.055388-0.27834 0.15499-0.43924 0.38086-0.64648 0-5.79e-4 3.62e-5 -0.0011 0.00391-2e-3 0.51296-0.51299 0.86964-1.3834 1.1113-2.2031 0.24162-0.81973 0.36468-1.5841 0.38477-1.8965 0.039732-0.62062-0.11133-2.1289-0.11133-2.1289 7.74e-5 -0.04661-0.043165-0.089844-0.089844-0.089844h-4.2441zm8.8496 0-2.748 3.8223h1.832v6.8359h-2.5176v0.46484h2.0176 2.834 2.0156v-0.46484h-2.5176v-6.8359h1.834zm10.916 0c-0.09365 7.74e-4 -0.1754 0.1178-0.19531 0.28516-3.0094 0.07063-5.6748 1.9386-6.3242 4.623 0.20177-0.42697 0.69748-0.71025 1.2461-0.71289 0.08974-3.87e-4 0.18198 0.0064 0.27344 0.02148 0.49807 0.08244 0.89367 0.38903 1.0332 0.78906l0.04883 2e-3c0.22896-0.5057 0.8683-0.8158 1.5254-0.70703 0.47233 0.07818 0.85461 0.35863 1.0117 0.72852h0.0098c0.16419-0.46376 0.66521-0.78232 1.2305-0.80469-0.0021 1.0723-0.0038 2.5725-2e-3 3.6406l-0.17969 0.02148c0.037 0.31468-0.09538 1.0811 0.0332 1.791 0.06431 0.35496 0.20651 0.71522 0.50195 0.98828 0.29548 0.27306 0.72706 0.43779 1.2969 0.45703h0.01953l0.01953-2e-3c0.77-0.07269 1.2332-0.43251 1.4277-0.87109 0.1945-0.43858 0.16016-0.89936 0.16016-1.2324h-0.59375c0 0.35639 0.0057 0.73232-0.10938 0.99219-0.11403 0.25713-0.30829 0.4557-0.92383 0.51758-0.4577-0.01866-0.72101-0.14026-0.89258-0.29883-0.17412-0.16091-0.27038-0.38264-0.32031-0.6582-0.09978-0.55112 0.03362-1.2352-0.02734-1.7539l-0.13672 0.01563c-0.0025-1.062-1.47e-4 -2.5316 2e-3 -3.5938 0.01742 0.0023 0.03524 3e-3 0.05273 0.0059 0.50573 0.08371 0.90549 0.39954 1.0391 0.80859h0.04492c0.19746-0.54938 0.86599-0.89329 1.5547-0.7793 0.50399 0.08342 0.90408 0.39572 1.0391 0.80273h0.01758c0.19953-0.5468 0.8659-0.88909 1.5527-0.77539 0.50176 0.08305 0.90036 0.39443 1.0371 0.79883h0.06641c-0.47912-2.3685-2.5666-4.2365-5.2559-4.7051-0.36314-0.06328-0.72379-0.09888-1.082-0.10938-0.01626-0.1406-0.07798-0.25122-0.1582-0.2793-0.01374-0.0048-0.02757-6e-3 -0.04102-0.0059z" color="#000000" fill="#240d00" fill-opacity=".23879"/>
</svg>
